themes/default/assets/images/icons/mid/reliable-results.svg

<?xml version="1.0" encoding="UTF-8"?>
<svg width="100px" height="74px" viewBox="0 0 100 74" version="1.1" xmlns="http://www.w3.org/2000/svg" xmlns:xlink="http://www.w3.org/1999/xlink">
    <!-- Generator: sketchtool 59 (101010) - https://sketch.com -->
    <title>84EB8F8F-A509-4B1B-9F22-9DB72F966CEB</title>
    <desc>Created with sketchtool.</desc>
    <g id="Page-1" stroke="none" stroke-width="1" fill="none" fill-rule="evenodd">
        <g id="Icons" transform="translate(-853.000000, -2071.000000)" fill-rule="nonzero">
            <g id="mid-icon-reliableresults" transform="translate(853.000000, 2071.000000)">
                <path d="M38.74,9.28618421 L9.25,9.28618421 C8.89294512,9.24414479 8.62411302,8.9453163 8.62411302,8.59046053 C8.62411302,8.23560475 8.89294512,7.93677627 9.25,7.89473684 L38.74,7.89473684 C39.0970549,7.93677627 39.365887,8.23560475 39.365887,8.59046053 C39.365887,8.9453163 39.0970549,9.24414479 38.74,9.28618421 L38.74,9.28618421 Z" id="Path" fill="#032663"></path>
                <path d="M46.77,15.3157895 L9.25,15.3157895 C8.86340068,15.3157895 8.55,15.0065125 8.55,14.625 C8.55,14.2434875 8.86340068,13.9342105 9.25,13.9342105 L46.77,13.9342105 C47.1565993,13.9342105 47.47,14.2434875 47.47,14.625 C47.47,15.0065125 47.1565993,15.3157895 46.77,15.3157895 L46.77,15.3157895 Z" id="Path" fill="#032663"></path>
                <path d="M41.8,21.1875 L9.25,21.1875 C8.89294512,21.1454606 8.62411302,20.8466321 8.62411302,20.4917763 C8.62411302,20.1369205 8.89294512,19.8380921 9.25,19.7960526 L41.8,19.7960526 C42.0719207,19.7640369 42.3382589,19.8892004 42.4844613,20.1177098 C42.6306636,20.3462192 42.6306636,20.6373334 42.4844613,20.8658428 C42.3382589,21.0943522 42.0719207,21.2195158 41.8,21.1875 Z" id="Path" fill="#032663"></path>
                <path d="M28.9,26.8815789 L9.25,26.8815789 C8.89294512,26.8395395 8.62411302,26.540711 8.62411302,26.1858553 C8.62411302,25.8309995 8.89294512,25.532171 9.25,25.4901316 L28.9,25.4901316 C29.2570549,25.532171 29.525887,25.8309995 29.525887,26.1858553 C29.525887,26.540711 29.2570549,26.8395395 28.9,26.8815789 L28.9,26.8815789 Z" id="Path" fill="#032663"></path>
                <path d="M60,27.1677632 L60,0.0789473684 L0,0.0789473684 L0,38.6151316 L16.88,38.6151316 L16.88,49.1940789 L29.5,38.6151316 L41.42,38.6151316 L41.42,64.2730263 L71.42,64.2730263 L83.08,74.0526316 L83.08,64.3125 L100,64.3125 L100,27.1677632 L60,27.1677632 Z M41.42,37.2236842 L29,37.2236842 L18.29,46.1940789 L18.29,37.2236842 L1.41,37.2236842 L1.41,1.46052632 L58.58,1.46052632 L58.58,27.1677632 L41.42,27.1677632 L41.42,37.2236842 Z M98.59,62.9309211 L81.71,62.9309211 L81.71,71.0526316 L72.38,63.2565789 L71.98,62.9309211 L42.82,62.9309211 L42.82,28.5493421 L98.59,28.5493421 L98.59,62.9309211 Z" id="Shape" fill="#A8C5DD"></path>
                <path d="M61.72,56.4671053 C63.3578198,56.6032508 64.9729081,56.9346099 66.53,57.4539474 C67.9361143,57.9448539 69.4185561,58.1886766 70.91,58.1743421 L78.63,58.1743421 C79.7720565,58.1293249 80.6889576,57.2287765 80.74,56.1019737 C80.7465982,55.6557341 80.6508788,55.2137966 80.46,54.8092105 C81.5370449,54.506237 82.2455499,53.4926292 82.15,52.3914474 C82.1496957,52.0791445 82.0742968,51.7713706 81.93,51.4934211 C82.8936779,51.0944752 83.5313565,50.1756374 83.56,49.1447368 C83.5418414,48.6235282 83.327991,48.1275921 82.96,47.7532895 C84.0718287,47.2792504 84.6948877,46.1011712 84.4531777,44.929991 C84.2114677,43.7588107 83.1711382,42.9150496 81.96,42.9078947 L73.37,42.9078947 C73.7893085,40.9978073 74.050172,39.057173 74.15,37.1052632 C74.2010062,36.1864238 73.9251101,35.2788707 73.37,34.5394737 C72.9259402,33.9874484 72.2541407,33.6614025 71.54,33.6513158 C70.9870529,33.6292892 70.4495729,33.8343409 70.0554298,34.217688 C69.6612866,34.6010351 69.4457148,35.1284082 69.46,35.6743421 C69.46,40.6776316 64.69,44.7138158 60.74,44.7138158 L56.74,44.7138158 L56.74,56.2993421 L57.44,56.2993421 C58.85,56.2993421 60.02,56.2993421 61.03,56.4177632 L61.72,56.4671053 Z M60.72,55.0164474 C59.95,55.0164474 59.1,54.9473684 58.13,54.9375 L58.13,46.0559211 L60.72,46.0559211 L60.72,55.0164474 Z M81.91,46.5888158 L80.51,46.5888158 L80.51,47.9605263 C81.21,47.9605263 82.17,48.6414474 82.17,49.125 C82.1465656,49.7613605 81.6433011,50.2792272 81,50.3289474 L79.57,50.3289474 L79.57,51.7006579 C79.62,51.7006579 80.76,51.7006579 80.76,52.4013158 C80.76,53.3881579 80.12,53.5756579 79.57,53.5756579 L78.16,53.5756579 L78.16,54.9375 C79.16,54.9375 79.35,55.5690789 79.35,56.1118421 C79.35,56.6546053 78.74,56.8125 78.63,56.8125 L70.91,56.8125 C69.5476357,56.8371033 68.1921403,56.6163894 66.91,56.1611842 C65.3452134,55.6448924 63.723882,55.3136298 62.08,55.1743421 L62.08,45.9671053 C67.0412329,44.9372459 70.6466453,40.6945773 70.81,35.6940789 C70.8068654,35.5151839 70.8795878,35.343127 71.0106081,35.2194522 C71.1416284,35.0957774 71.3190379,35.0317258 71.5,35.0427632 C71.7989061,35.0524481 72.0777301,35.1936463 72.26,35.4276316 C72.6057697,35.9098509 72.768609,36.4967432 72.72,37.0855263 C72.5972221,39.2176243 72.2995815,41.3363992 71.83,43.4210526 L71.64,44.25 L81.92,44.25 C82.3693501,44.2092215 82.8034153,44.4227651 83.0408766,44.8014287 C83.2783378,45.1800923 83.2783378,45.6587235 83.0408766,46.0373871 C82.8034153,46.4160507 82.3693501,46.6295943 81.92,46.5888158 L81.91,46.5888158 Z" id="Shape" fill="#2969F6"></path>
            </g>
        </g>
    </g>
</svg>

<svg width="100" height="74" xmlns="http://www.w3.org/2000/svg"><g fill-rule="nonzero" fill="none"><path d="M38.74 9.286H9.25a.704.704 0 01-.626-.696c0-.354.269-.653.626-.695h29.49c.357.042.626.34.626.695a.704.704 0 01-.626.696zM46.77 15.316H9.25c-.387 0-.7-.31-.7-.691 0-.382.313-.69.7-.69h37.52c.387 0 .7.308.7.69 0 .382-.313.69-.7.69zM41.8 21.188H9.25a.704.704 0 01-.626-.696c0-.355.269-.654.626-.696H41.8a.713.713 0 01.684.322.693.693 0 010 .748.713.713 0 01-.684.322zM28.9 26.882H9.25a.704.704 0 01-.626-.696c0-.355.269-.654.626-.696H28.9c.357.042.626.341.626.696a.704.704 0 01-.626.696z" fill="#032663"/><path d="M60 27.168V.078H0v38.537h16.88v10.58l12.62-10.58h11.92v25.658h30l11.66 9.78v-9.74H100V27.167H60zM41.42 37.224H29l-10.71 8.97v-8.97H1.41V1.46h57.17v25.707H41.42v10.056zM98.59 62.93H81.71v8.122l-9.33-7.796-.4-.326H42.82V28.549h55.77v34.382z" fill="#A8C5DD"/><path d="M61.72 56.467c1.638.136 3.253.468 4.81.987 1.406.49 2.889.735 4.38.72h7.72a2.186 2.186 0 002.11-2.072 2.928 2.928 0 00-.28-1.293 2.31 2.31 0 001.69-2.418c0-.312-.076-.62-.22-.898a2.626 2.626 0 001.63-2.348 2.088 2.088 0 00-.6-1.392 2.519 2.519 0 001.493-2.823 2.552 2.552 0 00-2.493-2.022h-8.59c.42-1.91.68-3.85.78-5.803a3.911 3.911 0 00-.78-2.566 2.391 2.391 0 00-1.83-.888 2.015 2.015 0 00-1.485.567 1.96 1.96 0 00-.595 1.456c0 5.004-4.77 9.04-8.72 9.04h-4v11.585h.7c1.41 0 2.58 0 3.59.119l.69.05zm-1-1.45c-.77 0-1.62-.07-2.59-.08v-8.881h2.59v8.96zm21.19-8.428h-1.4v1.372c.7 0 1.66.68 1.66 1.164A1.26 1.26 0 0181 50.329h-1.43V51.7c.05 0 1.19 0 1.19.7 0 .987-.64 1.175-1.19 1.175h-1.41v1.361c1 0 1.19.632 1.19 1.175s-.61.7-.72.7h-7.72a11.345 11.345 0 01-4-.65 21.102 21.102 0 00-4.83-.988v-9.207c4.961-1.03 8.567-5.272 8.73-10.273a.637.637 0 01.2-.475.655.655 0 01.49-.176c.299.01.578.15.76.385.346.482.509 1.069.46 1.658a39.044 39.044 0 01-.89 6.335l-.19.829h10.28c.45-.04.883.173 1.12.551.238.38.238.858 0 1.236a1.195 1.195 0 01-1.12.552h-.01z" fill="#2969F6"/></g></svg>
